assets/svg/icon_camera_open copy.svg

<svg width="40" height="40" viewBox="0 0 40 40" fill="none" xmlns="http://www.w3.org/2000/svg">
    <path
        d="M9.29967 30.714L9.83741 29.8709L9.83741 29.8709L9.29967 30.714ZM7.66471 29.1534L8.48395 28.5799H8.48395L7.66471 29.1534ZM32.334 29.1534L31.5147 28.5799L32.334 29.1534ZM30.699 30.714L30.1613 29.8709L30.1613 29.8709L30.699 30.714ZM32.334 14.3833L31.5147 14.9567L32.334 14.3833ZM30.699 12.8226L30.1613 13.6658V13.6658L30.699 12.8226ZM7.66471 14.3833L8.48395 14.9567L7.66471 14.3833ZM9.29967 12.8226L9.83741 13.6658H9.83741L9.29967 12.8226ZM15.1105 10.4552L16.0892 10.6603V10.6603L15.1105 10.4552ZM13.3033 11.9129V10.9129H13.2821L13.2609 10.9138L13.3033 11.9129ZM24.8882 10.4552L25.867 10.2501V10.2501L24.8882 10.4552ZM26.6954 11.9129L26.7378 10.9138L26.7166 10.9129H26.6954V11.9129ZM29.3327 18.4081C29.885 18.4081 30.3327 17.9603 30.3327 17.4081C30.3327 16.8558 29.885 16.4081 29.3327 16.4081V18.4081ZM27.9993 16.4081C27.4471 16.4081 26.9993 16.8558 26.9993 17.4081C26.9993 17.9603 27.4471 18.4081 27.9993 18.4081V16.4081ZM22.9993 21.2969C22.9993 22.8661 21.6829 24.1858 19.9993 24.1858V26.1858C22.734 26.1858 24.9993 24.0234 24.9993 21.2969H22.9993ZM19.9993 24.1858C18.3158 24.1858 16.9993 22.8661 16.9993 21.2969H14.9993C14.9993 24.0234 17.2647 26.1858 19.9993 26.1858V24.1858ZM16.9993 21.2969C16.9993 19.7278 18.3158 18.4081 19.9993 18.4081V16.4081C17.2647 16.4081 14.9993 18.5705 14.9993 21.2969H16.9993ZM19.9993 18.4081C21.6829 18.4081 22.9993 19.7278 22.9993 21.2969H24.9993C24.9993 18.5705 22.734 16.4081 19.9993 16.4081V18.4081ZM22.9623 30.6673H17.0364V32.6673H22.9623V30.6673ZM17.0364 30.6673C14.9358 30.6673 13.4323 30.6662 12.2647 30.5528C11.1115 30.4409 10.3959 30.2271 9.83741 29.8709L8.76193 31.5571C9.69812 32.1542 10.7701 32.4171 12.0714 32.5435C13.3581 32.6684 14.9756 32.6673 17.0364 32.6673V30.6673ZM5.66602 21.7683C5.66602 23.7326 5.66469 25.2847 5.79648 26.5214C5.93032 27.7772 6.21025 28.8194 6.84548 29.7268L8.48395 28.5799C8.12048 28.0607 7.90106 27.3964 7.78522 26.3094C7.66734 25.2033 7.66602 23.7762 7.66602 21.7683H5.66602ZM9.83741 29.8709C9.29894 29.5275 8.83969 29.0881 8.48395 28.5799L6.84548 29.7268C7.35443 30.4539 8.0063 31.0752 8.76193 31.5571L9.83741 29.8709ZM32.3327 21.7683C32.3327 23.7762 32.3314 25.2033 32.2135 26.3094C32.0976 27.3964 31.8782 28.0607 31.5147 28.5799L33.1532 29.7268C33.7884 28.8194 34.0684 27.7772 34.2022 26.5214C34.334 25.2847 34.3327 23.7326 34.3327 21.7683H32.3327ZM22.9623 32.6673C25.0231 32.6673 26.6406 32.6684 27.9273 32.5435C29.2286 32.4171 30.3006 32.1542 31.2368 31.5571L30.1613 29.8709C29.6028 30.2271 28.8872 30.4409 27.734 30.5528C26.5664 30.6662 25.0629 30.6673 22.9623 30.6673V32.6673ZM31.5147 28.5799C31.159 29.0881 30.6998 29.5275 30.1613 29.8709L31.2368 31.5571C31.9924 31.0752 32.6443 30.4539 33.1532 29.7268L31.5147 28.5799ZM34.3327 21.7683C34.3327 19.804 34.334 18.2519 34.2022 17.0153C34.0684 15.7594 33.7884 14.7173 33.1532 13.8098L31.5147 14.9567C31.8782 15.476 32.0976 16.1403 32.2135 17.2272C32.3314 18.3333 32.3327 19.7604 32.3327 21.7683H34.3327ZM30.1613 13.6658C30.6998 14.0092 31.159 14.4485 31.5147 14.9567L33.1532 13.8098C32.6443 13.0827 31.9924 12.4615 31.2368 11.9795L30.1613 13.6658ZM7.66602 21.7683C7.66602 19.7604 7.66734 18.3333 7.78522 17.2272C7.90106 16.1403 8.12048 15.476 8.48395 14.9567L6.84548 13.8098C6.21025 14.7173 5.93032 15.7594 5.79648 17.0153C5.66469 18.2519 5.66602 19.804 5.66602 21.7683H7.66602ZM8.76193 11.9795C8.0063 12.4615 7.35443 13.0827 6.84548 13.8098L8.48395 14.9567C8.83969 14.4485 9.29894 14.0092 9.83741 13.6658L8.76193 11.9795ZM17.8211 9.33398H22.1776V7.33398H17.8211V9.33398ZM14.1317 10.2501C14.0556 10.6136 13.7041 10.9129 13.3033 10.9129V12.9129C14.6595 12.9129 15.8208 11.9414 16.0892 10.6603L14.1317 10.2501ZM23.9095 10.6603C24.1779 11.9414 25.3392 12.9129 26.6954 12.9129V10.9129C26.2946 10.9129 25.9431 10.6136 25.867 10.2501L23.9095 10.6603ZM22.1776 9.33398C23.0535 9.33398 23.7544 9.92019 23.9095 10.6603L25.867 10.2501C25.5052 8.52341 23.937 7.33398 22.1776 7.33398V9.33398ZM17.8211 7.33398C16.0617 7.33398 14.4935 8.52341 14.1317 10.2501L16.0892 10.6603C16.2443 9.9202 16.9452 9.33398 17.8211 9.33398V7.33398ZM26.6529 12.912C28.4655 12.989 29.4377 13.2042 30.1613 13.6658L31.2368 11.9795C30.0395 11.2159 28.6069 10.9932 26.7378 10.9138L26.6529 12.912ZM13.2609 10.9138C11.3918 10.9932 9.95916 11.2159 8.76193 11.9795L9.83741 13.6658C10.561 13.2042 11.5332 12.989 13.3458 12.912L13.2609 10.9138ZM29.3327 16.4081H27.9993V18.4081H29.3327V16.4081Z"
        fill="white" />
</svg>

<svg xmlns="http://www.w3.org/2000/svg" width="40" height="40" fill="none"><path fill="#fff" d="m9.3 30.714.537-.843zm-1.635-1.56.819-.574zm24.669 0-.82-.574zm-1.635 1.56-.538-.843zm1.635-16.33-.82.573zm-1.635-1.561-.538.843zm-23.034 1.56.819.574zm1.635-1.56.537.843zm5.81-2.368.98.205zm-1.807 1.458v-1h-.042zm11.585-1.458.979-.205zm1.807 1.458.043-1h-.043zm2.638 6.495a1 1 0 0 0 0-2zm-1.334-2a1 1 0 0 0 0 2zm-5 4.889c0 1.57-1.316 2.889-3 2.889v2c2.735 0 5-2.163 5-4.89zm-3 2.889c-1.683 0-3-1.32-3-2.89h-2c0 2.727 2.266 4.89 5 4.89zm-3-2.89c0-1.568 1.317-2.888 3-2.888v-2c-2.734 0-5 2.162-5 4.889zm3-2.888c1.684 0 3 1.32 3 2.889h2c0-2.727-2.265-4.889-5-4.889zm2.963 12.26h-5.926v2h5.926zm-5.926 0c-2.1 0-3.604-.002-4.771-.115-1.154-.112-1.87-.326-2.428-.682l-1.075 1.686c.936.597 2.008.86 3.31.987 1.286.124 2.904.123 4.964.123zm-11.37-8.9c0 1.965-.001 3.517.13 4.753.134 1.256.414 2.298 1.05 3.206l1.638-1.147c-.364-.52-.583-1.184-.699-2.27-.118-1.107-.119-2.534-.119-4.542zm4.171 8.103a4.8 4.8 0 0 1-1.353-1.291l-1.639 1.147a6.8 6.8 0 0 0 1.917 1.83zm22.496-8.103c0 2.008-.002 3.435-.12 4.541-.115 1.087-.335 1.752-.698 2.27l1.638 1.148c.635-.908.915-1.95 1.05-3.206.131-1.236.13-2.788.13-4.753zm-9.37 10.9c2.06 0 3.678 0 4.964-.124 1.302-.127 2.374-.39 3.31-.987l-1.076-1.686c-.558.356-1.274.57-2.427.682-1.168.113-2.671.114-4.772.114zm8.552-4.088a4.8 4.8 0 0 1-1.354 1.29l1.076 1.687a6.8 6.8 0 0 0 1.916-1.83zm2.818-6.812c0-1.964.001-3.516-.13-4.753-.135-1.256-.415-2.298-1.05-3.205l-1.638 1.147c.363.519.583 1.183.699 2.27.117 1.106.119 2.533.119 4.541zm-4.172-8.102c.539.343.998.782 1.354 1.29l1.638-1.146a6.8 6.8 0 0 0-1.916-1.83zM7.666 21.768c0-2.008.001-3.435.12-4.54.115-1.088.334-1.752.698-2.271L6.845 13.81c-.635.907-.915 1.95-1.049 3.205-.131 1.237-.13 2.789-.13 4.753zm1.096-9.788a6.8 6.8 0 0 0-1.917 1.83l1.639 1.147a4.8 4.8 0 0 1 1.353-1.291zm9.06-2.646h4.356v-2H17.82zm-3.69.916a.86.86 0 0 1-.829.663v2a2.86 2.86 0 0 0 2.786-2.253zm9.778.41a2.86 2.86 0 0 0 2.785 2.253v-2c-.4 0-.752-.3-.828-.663zm-1.732-1.326c.875 0 1.576.586 1.732 1.326l1.957-.41c-.362-1.727-1.93-2.916-3.69-2.916zm-4.357-2c-1.76 0-3.328 1.19-3.69 2.916l1.958.41c.155-.74.856-1.326 1.732-1.326zm8.832 5.578c1.813.077 2.785.292 3.508.754l1.076-1.687c-1.197-.763-2.63-.986-4.5-1.065zM13.26 10.914c-1.87.08-3.302.302-4.5 1.066l1.076 1.686c.724-.462 1.696-.677 3.509-.754zm16.072 5.494h-1.334v2h1.334z"/></svg>
